X:1
T:Title
%%score { ( 1 4 ) | ( 2 3 ) }
L:1/8
Q:1/4=90
M:6/8
K:A
V:1 treble nm="Grand Piano"
V:4 treble 
V:2 bass 
V:3 bass 
V:1
 [A,FA][^EG][A,FA] [EB][FA][A,DF] | [A,CA]3[K:bass] [=G,CE]3 | %2
w: E.~P.~Tate * * * * *||
 D-[DE][K:treble][A,DF] .[B,DA]2 [B,DF] | E3- [CE]3 | [E=G]F[A,CE] [CE]F[A,EG] | %5
w: |||
 [A,DF]3 [FA]2- [B,FA] | AG[CEA] [Ec]2 [DEB] | [CEA]6 | dc[Fd] ed[=GB] | [=GB]3 [FA]3 | %10
w: |||||
 dc[FB] [^EB]AF | E6 | AGA Bcd | [Fd]3 [DB]3 | AF[K:bass][F,D] [A,CF]2 [=G,CE] | [F,D]6 |] %16
w: ||||||
V:2
 z B,D, G,A,D, | A,,3 A,,3 | z =G,A,, z =G=G,, | z3 A,3 | z DA,, z DA,, | D,3 D,3 | .C3 z3 | A,6 | %8
 [D,A,]2 [D,A,] [D,B,]2 [D,D] | [D,D]3 [D,D]3 | [D,A,]2 [D,A,] D,-[D,A,F][F,A,D] | [A,C]6 | %12
 D-[^E,B,D][F,A,D] z A,[=G,B,D] | [D,A,]3 [=G,,=G,]3 | .F,3 z3 | D,6 |] %16
V:3
 .D,3 .D,3 | x6 | .B,,3 .=G,,3 | A,,6 | .A,,3 .A,,3 | x6 | [E,E]-[E,B,E]E, E,F,G, | x6 | x6 | x6 | %10
 z3 .G,3 | x6 | .[F,A,]3 .[=G,D]3 | x6 | A,,-[A,,A,]A,, A,,2 A,, | x6 |] %16
V:4
 x6 | x3[K:bass] x3 | .F,3[K:treble] z3 | [B,D]3 z3 | .A,3 .A,3 | z3 .A,3 | x6 | x6 | .F3 .=G3 | %9
 x6 | .F3 z3 | x6 | x6 | x6 | .D3[K:bass] z3 | x6 |] %16

